libs/ui/packages/crypto-icons/src/svg/BCBC.svg

<svg width="24" height="24" viewBox="0 0 24 24" fill="none">
<path d="M9.36174 5.84522C8.372 6.21816 7.48699 6.82467 6.78202 7.61315C6.07705 8.40163 5.57299 9.34874 5.31271 10.3739C5.05243 11.399 5.04365 12.4719 5.28711 13.5012C5.53057 14.5304 6.01906 15.4857 6.71103 16.2856C7.403 17.0855 8.27795 17.7064 9.26146 18.0955C10.245 18.4846 11.3079 18.6304 12.3599 18.5204C13.4118 18.4104 14.4216 18.0479 15.3034 17.4638C16.1851 16.8797 16.9127 16.0912 17.4242 15.1655L11.6777 11.9892L14.0095 5.85047C12.5129 5.28233 10.8603 5.28046 9.36249 5.84522H9.36174ZM9.77124 7.02497C10.9843 6.56756 12.3227 6.56916 13.5347 7.02947L11.647 11.9997L16.3 14.5722C15.8857 15.3216 15.2965 15.9599 14.5825 16.4327C13.8686 16.9055 13.051 17.1989 12.1993 17.2878C11.3476 17.3768 10.487 17.2587 9.69078 16.9437C8.89453 16.6286 8.18615 16.1259 7.62592 15.4782C7.06569 14.8306 6.67018 14.0573 6.47303 13.2239C6.27588 12.3906 6.28292 11.522 6.49357 10.692C6.70421 9.862 7.11222 9.09515 7.68288 8.4567C8.25355 7.81824 8.96998 7.32707 9.77124 7.02497ZM11.9732 3.73547C12.8665 3.77072 13.7477 3.95072 14.5832 4.26797L11.647 11.9997L18.8852 16.001C18.173 17.2895 17.1298 18.3646 15.8633 19.1153C14.5967 19.8659 13.1528 20.2649 11.6805 20.2709C10.2082 20.277 8.76101 19.89 7.4883 19.1498C6.2156 18.4097 5.16352 17.3432 4.44071 16.0606C3.71791 14.778 3.35057 13.3256 3.37663 11.8536C3.40269 10.3815 3.82121 8.94313 4.58897 7.68688C5.35673 6.43064 6.44589 5.40209 7.744 4.70746C9.04211 4.01282 10.5021 3.67728 11.9732 3.73547ZM17.62 6.59447C17.818 6.59447 18.0025 6.61772 18.172 6.66572C18.6715 6.80297 19.009 7.11347 19.1845 7.59647C19.2917 7.88972 19.315 8.17772 19.255 8.46047C19.201 8.74097 19.0712 8.99297 18.8657 9.21797C19.2512 9.20072 19.588 9.28697 19.8782 9.47447C20.1655 9.65597 20.3777 9.93422 20.5135 10.3077C20.7062 10.8372 20.6485 11.321 20.3387 11.759C20.0327 12.1895 19.486 12.5487 18.6977 12.8352L15.5747 13.9722L13.3765 7.93247L16.327 6.85847C16.81 6.68297 17.2412 6.59447 17.62 6.59447ZM17.1625 7.84397C16.9825 7.84397 16.7747 7.88747 16.5377 7.97372L15.1487 8.47922L15.6662 9.90347L17.056 9.39722C17.401 9.27197 17.641 9.11672 17.7745 8.93072C17.9095 8.74472 17.9335 8.53397 17.8472 8.29847C17.7617 8.06297 17.6087 7.91972 17.3882 7.86947C17.3143 7.85163 17.2385 7.84306 17.1625 7.84397ZM18.334 10.1855C18.145 10.1877 17.923 10.235 17.668 10.328L16.0375 10.9212L16.5805 12.4137L18.211 11.8205C18.5785 11.6862 18.8335 11.5257 18.973 11.3375C19.1192 11.1477 19.1455 10.9265 19.054 10.673C18.934 10.3452 18.694 10.1825 18.334 10.1855Z" fill="#004AB5"/>
</svg>

<svg width="24" height="24" viewBox="0 0 24 24" fill="none"><path fill="#004ab5" d="M9.362 5.845a6.566 6.566 0 1 0 8.062 9.32l-5.746-3.176 2.331-6.139a6.57 6.57 0 0 0-4.647-.005m.41 1.18a5.32 5.32 0 0 1 3.763.004L11.647 12l4.653 2.573a5.317 5.317 0 1 1-6.529-7.547m2.201-3.29a8.3 8.3 0 0 1 2.61.533L11.647 12l7.238 4a8.272 8.272 0 1 1-6.912-12.266m5.647 2.86q.298 0 .552.07.75.207 1.012.931.162.441.071.864a1.54 1.54 0 0 1-.39.758 1.68 1.68 0 0 1 1.013.256q.432.273.636.834.288.794-.175 1.451-.459.646-1.641 1.076l-3.123 1.137-2.198-6.04 2.95-1.074q.725-.263 1.293-.264m-.457 1.249q-.27 0-.625.13l-1.39.505.518 1.424 1.39-.506q.518-.187.718-.466.204-.279.073-.633-.127-.353-.459-.429a1 1 0 0 0-.226-.025m1.171 2.341q-.284.004-.666.143l-1.63.593.543 1.493 1.63-.594q.552-.2.762-.482.218-.284.081-.665-.18-.492-.72-.488"/></svg>
